X:1
T:Then Cherry Tree (3)
M:2/4
L:1/8
K:G
 B2| EE AB/2-d/2| BA/2-G/2 AG/2-A/2| BB A G/2=F/2| ED/2-E/2 ^F| ^c|\
 B B/2B/2 B A/2G/2| AB FD| EB BA| F2||
